svgs/duotone/mill-sign.svg

<svg xmlns="http://www.w3.org/2000/svg" viewBox="0 0 384 512"><!--! Font Awesome Pro 6.1.1 by @fontawesome - https://fontawesome.com License - https://fontawesome.com/license (Commercial License) Copyright 2022 Fonticons, Inc. --><defs><style>.fa-secondary{opacity:.4}</style></defs><path class="fa-primary" d="M112 160C85.49 160 64 181.5 64 208V416C64 433.7 49.67 448 32 448C14.33 448 0 433.7 0 416V128C0 110.3 14.33 96 32 96C42.87 96 52.48 101.4 58.26 109.7C74.21 100.1 92.53 96 112 96C143.3 96 171.7 108.9 192 129.6C212.3 108.9 240.7 96 272 96C333.9 96 384 146.1 384 208V416C384 433.7 369.7 448 352 448C334.3 448 320 433.7 320 416V208C320 181.5 298.5 160 272 160C245.5 160 224 181.5 224 208V416C224 433.7 209.7 448 192 448C174.3 448 160 433.7 160 416V208C160 181.5 138.5 160 112 160z"/><path class="fa-secondary" d="M282.9 96.53C279.3 96.18 275.7 96 272 96C248.2 96 226.1 103.4 207.1 116.1L241.9 21.24C247.8 4.595 266.1-4.079 282.8 1.865C299.4 7.809 308.1 26.12 302.1 42.76L282.9 96.53zM224 261.5V208C224 185.7 239.1 167 259.7 161.6L224 261.5zM142.1 490.8C136.2 507.4 117.9 516.1 101.2 510.1C84.59 504.2 75.92 485.9 81.86 469.2L160 250.5V416C160 421.3 161.3 426.3 163.6 430.7L142.1 490.8z"/></svg>

<svg xmlns="http://www.w3.org/2000/svg" viewBox="0 0 384 512"><!--! Font Awesome Pro 6.5.1 by @fontawesome - https://fontawesome.com License - https://fontawesome.com/license (Commercial License) Copyright 2023 Fonticons, Inc. --><defs><style>.fa-secondary{opacity:.4}</style></defs><path class="fa-secondary" d="M302.1 42.8c5.9-16.6-2.7-35-19.4-40.9s-35 2.7-40.9 19.4L208 116.1C226.1 103.4 248.2 96 272 96c3.7 0 7.3 .2 10.9 .5l19.2-53.8zM259.7 161.6C239.1 167 224 185.7 224 208v53.5l35.7-100zM163.6 430.7c-2.3-4.4-3.6-9.4-3.6-14.7V250.5L81.9 469.2c-5.9 16.6 2.7 35 19.4 40.9s35-2.7 40.9-19.4l21.4-60z"/><path class="fa-primary" d="M112 160c-26.5 0-48 21.5-48 48V416c0 17.7-14.3 32-32 32s-32-14.3-32-32V208 128c0-17.7 14.3-32 32-32c10.9 0 20.5 5.4 26.3 13.7C74.2 101 92.5 96 112 96c31.3 0 59.7 12.9 80 33.6C212.3 108.9 240.7 96 272 96c61.9 0 112 50.1 112 112V416c0 17.7-14.3 32-32 32s-32-14.3-32-32V208c0-26.5-21.5-48-48-48s-48 21.5-48 48V416c0 17.7-14.3 32-32 32s-32-14.3-32-32V208c0-26.5-21.5-48-48-48z"/></svg>
